lib/radiotmp/nrk-media-playlist.svg

<svg width="24" height="24" viewBox="0 0 24 24" fill="none" xmlns="http://www.w3.org/2000/svg">
<g opacity="0.3">
<path d="M12 11H22V13H12V11Z" fill="black"/>
<path d="M22 17H2V19H22V17Z" fill="black"/>
<path d="M12 5H22V7H12V5Z" fill="black"/>
</g>
<path d="M3.00232 4H6.23438L8.98438 9L6.23438 14H3.00232L5.75232 9L3.00232 4Z" fill="black"/>
</svg>

<svg xmlns="http://www.w3.org/2000/svg" viewBox="0 0 24 24"><g fill="#000" opacity=".3"><path d="M12 11h10v2H12v-2ZM22 17H2v2h20v-2ZM12 5h10v2H12V5Z"/></g><path fill="#000" d="M3.002 4h3.232l2.75 5-2.75 5H3.002l2.75-5-2.75-5Z"/></svg>
